X:0452
T:Lethe.
M:6/8
L:1/8
Q:3/8=60 "Slow"
I: :: ||
Z:Jack Campin * www.campin.me.uk * 2009
K:G
d   |   g>fg      dcB|A/c/BA       G2A|B>cd efg      |{e}dc/B/A/G/     A2
d   |   g>fg      dcB|A/c/BA       G2d|e>fg ag/f/e/d/|   e/g/fe        d2::
f/g/|   a>ba      fdf|g>fg         e2d|e>dc Bcd      |   ec'/b/a/g/ {g}f2
g   |{e}dc/B/A/G/ dfg|e/d/c/B/A/G/ d2a|b>fg dcB      |   cAd           G2:|
<end>
<start>
